icons/ancv.svg

<svg width="48" height="48" viewBox="0 0 48 48" fill="none" xmlns="http://www.w3.org/2000/svg">
<path fill-rule="evenodd" clip-rule="evenodd" d="M19.5 11C20.8807 11 22 9.88071 22 8.5C22 7.11929 20.8807 6 19.5 6C18.1193 6 17 7.11929 17 8.5C17 9.88071 18.1193 11 19.5 11ZM19.5 13C21.9853 13 24 10.9853 24 8.5C24 6.01472 21.9853 4 19.5 4C17.0147 4 15 6.01472 15 8.5C15 10.9853 17.0147 13 19.5 13Z" fill="black"/>
<path fill-rule="evenodd" clip-rule="evenodd" d="M32 16C34.2091 16 36 14.2091 36 12C36 9.79086 34.2091 8 32 8C29.7909 8 28 9.79086 28 12C28 14.2091 29.7909 16 32 16ZM32 18C35.3137 18 38 15.3137 38 12C38 8.68629 35.3137 6 32 6C28.6863 6 26 8.68629 26 12C26 15.3137 28.6863 18 32 18Z" fill="black"/>
<path fill-rule="evenodd" clip-rule="evenodd" d="M32 9C32.5523 9 33 9.44772 33 10V11.6972L33.8321 12.9453C34.1384 13.4048 34.0142 14.0257 33.5547 14.3321C33.0952 14.6384 32.4743 14.5142 32.1679 14.0547L31 12.3028V10C31 9.44772 31.4477 9 32 9Z" fill="black"/>
<path fill-rule="evenodd" clip-rule="evenodd" d="M15.0795 15.3065C15.3527 15.1874 15.8588 15 16.5 15H18.5C19.071 15 19.5275 15.1643 19.6506 15.2086L19.6587 15.2115C19.859 15.2835 20.0444 15.3671 20.1974 15.4416C20.5096 15.5936 20.8513 15.7884 21.2009 16.0088C21.9068 16.4536 22.769 17.0806 23.6694 17.8729C25.447 19.4371 27.553 21.8048 28.7854 24.8858C29.5686 26.8438 29.5132 28.7332 28.7846 30.3777C28.103 31.9159 26.9491 32.9814 25.967 33.675C22.9171 35.829 22.774 37.2291 21.9981 41.1087C21.9409 42.7152 20.6205 44 19 44C17.3431 44 16 42.6569 16 41C16 35.8673 15.9977 32.8134 15.7657 29.9253C14.4605 30.8767 12.6265 30.6238 11.6297 29.3389C11.3868 29.0258 10.7143 28.0796 10.1137 27.1692C9.80953 26.7081 9.48895 26.2037 9.23467 25.7575C9.11011 25.539 8.97253 25.2842 8.85725 25.028C8.79986 24.9005 8.72744 24.7275 8.66451 24.529C8.61541 24.3742 8.5 23.9883 8.5 23.5C8.5 22.7844 8.76069 22.228 8.81751 22.1067L8.8182 22.1053L8.81889 22.1038L8.82068 22.1C8.91538 21.8945 9.0211 21.7097 9.10495 21.5706C9.27784 21.284 9.49243 20.9715 9.71138 20.6694C10.1569 20.0545 10.7401 19.3184 11.3472 18.6101C11.9477 17.9096 12.6258 17.1727 13.2606 16.5859C13.5722 16.298 13.9386 15.9851 14.3257 15.7252C14.52 15.5948 14.7768 15.4386 15.0795 15.3065ZM16.5 17C15.765 17 15.1254 17.5858 14.6181 18.0547C14.0627 18.568 13.4409 19.2407 12.8657 19.9117C12.2884 20.5853 11.7398 21.2786 11.3309 21.8429C11.0794 22.1899 10.8173 22.546 10.637 22.9372C10.5555 23.1141 10.5 23.3039 10.5 23.5C10.5 23.9569 10.7535 24.3834 10.9723 24.7673C11.195 25.158 11.4882 25.6207 11.7832 26.0679C12.3707 26.9585 13.0115 27.8573 13.2099 28.113C13.5484 28.5493 14.1766 28.6286 14.613 28.2901C15.0493 27.9516 15.1286 27.3234 14.7901 26.887C14.6363 26.6888 14.0271 25.8375 13.4527 24.9666C13.2553 24.6674 13.0691 24.3766 12.9109 24.1169L12.5646 23.5483L12.9555 23.0094C13.3273 22.4968 13.8391 21.8493 14.3843 21.2133C14.507 21.0701 14.63 20.9291 14.7521 20.7919L16.0899 19.2881L16.4803 21.2625C17.9921 28.9082 18 31.4231 18 41C18 41.5523 18.4477 42 19 42C19.6212 42 20 41.479 20 40.901C20.8162 36.8201 21.295 34.5261 24.8132 32.0413C25.6285 31.4656 26.4735 30.6563 26.956 29.5674C27.4541 28.4433 27.523 27.115 26.9285 25.6286C25.851 22.935 23.9824 20.8124 22.3481 19.3743C21.5272 18.6519 20.7502 18.0887 20.1347 17.7008C19.7701 17.4711 19.3904 17.2402 18.9827 17.0938C18.8278 17.0381 18.6654 17 18.5 17H16.5Z" fill="black"/>
</svg>

<svg
  xmlns="http://www.w3.org/2000/svg"
  width="24"
  height="24"
  viewBox="0 0 24 24"
  fill="none"
  stroke="currentColor"
  stroke-width="2"
  stroke-linecap="round"
  stroke-linejoin="round"
>
  <path
    fill-rule="evenodd"
    d="M19.5 11a2.5 2.5 0 1 0 0-5 2.5 2.5 0 0 0 0 5m0 2a4.5 4.5 0 1 0 0-9 4.5 4.5 0 0 0 0 9"
    clip-rule="evenodd"
  />
  <path
    fill-rule="evenodd"
    d="M32 16a4 4 0 1 0 0-8 4 4 0 0 0 0 8m0 2a6 6 0 1 0 0-12 6 6 0 0 0 0 12"
    clip-rule="evenodd"
  />
  <path
    fill-rule="evenodd"
    d="M32 9a1 1 0 0 1 1 1v1.697l.832 1.248a1 1 0 0 1-1.664 1.11L31 12.303V10a1 1 0 0 1 1-1"
    clip-rule="evenodd"
  />
  <path
    fill-rule="evenodd"
    d="M15.08 15.307c.273-.12.779-.307 1.42-.307h2c.571 0 1.027.164 1.15.209l.009.002c.2.072.385.156.538.23.313.153.654.347 1.004.568a20 20 0 0 1 2.468 1.864c1.778 1.564 3.884 3.932 5.116 7.013.784 1.958.728 3.847 0 5.492-.682 1.538-1.836 2.603-2.818 3.297-3.05 2.154-3.193 3.554-3.969 7.434A3 3 0 0 1 16 41c0-5.133-.002-8.187-.234-11.075a3 3 0 0 1-4.136-.586 46 46 0 0 1-1.516-2.17 27 27 0 0 1-.88-1.412 9 9 0 0 1-.377-.729c-.057-.127-.13-.3-.192-.499A3.4 3.4 0 0 1 8.5 23.5c0-.716.26-1.272.318-1.393v-.003l.003-.004c.094-.206.2-.39.284-.53.173-.286.387-.599.606-.9a34 34 0 0 1 1.636-2.06c.6-.7 1.279-1.437 1.914-2.024.311-.288.678-.6 1.065-.86.194-.131.45-.287.753-.42M16.5 17c-.735 0-1.375.586-1.882 1.055-.555.513-1.177 1.186-1.752 1.857a32 32 0 0 0-1.535 1.93c-.252.348-.514.704-.694 1.095a1.35 1.35 0 0 0-.137.563c0 .457.254.883.472 1.267.223.391.516.854.811 1.3a45 45 0 0 0 1.427 2.046 1 1 0 0 0 1.58-1.226 44 44 0 0 1-1.88-2.77l-.345-.569.39-.539a30 30 0 0 1 1.797-2.217l1.338-1.504.39 1.974C17.992 28.909 18 31.423 18 41a1 1 0 0 0 1 1c.621 0 1-.521 1-1.099.816-4.08 1.295-6.375 4.813-8.86.816-.575 1.66-1.385 2.143-2.474.498-1.124.567-2.452-.027-3.938-1.078-2.694-2.947-4.817-4.58-6.255a18 18 0 0 0-2.214-1.673c-.365-.23-.745-.46-1.152-.607A1.4 1.4 0 0 0 18.5 17z"
    clip-rule="evenodd"
  />
</svg>
